!!!!SEGMENT: pl-wtm--iii-41-976--015_kurpinski-karol-kazimierz--wesele-w-ojcowie-obertas.krn
!!!cenid: 18xx:4267
!!!COM: Kurpiński, Karol Kazimierz
!!!COM-rismID: pe30018952
!!!CDT: 1785/03/06-1857/09/18
!!!CNT: Polish
!!!GTL: Wesele w Ojcowie
!!!OTL: Obertas
!!!OMV: 015
!!!PDT:
!!!AGN:
!!!SMS-siglum: PL-Wtm
!!!SMS-shelfmark: III.41.976
!!!SMS-shelfwork: 001-015 G
!!!SMS-variant:
!!!SMS-altvar:
!!!NIFC-rismSourceID: 1001130735
!!!NIFC-rismChildID: 1001130735
!!!NIFC-islandoraID: pl-wtm:23143
!!!URL-pdf-islandora: https://repozytorium.nifc.pl/islandora/object/pl-wtm:23143/datastream/PDF/view
!!!URL-scan: https://polish.musicsources.pl/pl/lokalizacje/galeria/druki-muzyczne/17811/16 @EN{Scan on Polish Music Sources Website} @PL{Skany w portalu Dziedzictwo Muzyki Polskiej w otwartym dostępie}
!!!IIIF:
!!!ONB-nifc: UWAGA: skan 16 (razem z Coda)
!!!AIN: 2 piano
!!!key: D
**kern	**kern	**dynam
*part2	*part1	*part1
*staff2	*staff1	*
*I"[FORTEPIAN]	*I"[FORTEPIAN]	*
*I'	*I'	*
*Ipiano	*Ipiano	*
*ICklav	*ICklav	*
*clefF4	*clefG2	*
*k[f#c#]	*k[f#c#]	*
*D:	*D:	*
*M3/8	*M3/8	*
*>[A,B,B,C,B,B,C,D]	*>[A,B,B,C,B,B,C,D]	*
=1	=1	=1
*>A	*>A	*>A
!!LO:TX:t=P:problem:kłopot z interpretacją - łuk czy klamra w triolach - przyjęto klamrę
!	!	!LO:DY:b:rj
.	(16qqc#/LL	p
.	16qqB/JJ)	.
8AAL 8AAA'/	4.A^/	.
8AA 8AAA'/	.	.
8AAJ 8AAA'/	.	.
=2	=2	=2
.	(16qqc#/LL	.
.	16qqB/JJ)	.
8AAL 8AAA'/	4.A^/	.
8AA 8AAA'/	.	.
8AAJ 8AAA'/	.	.
=3	=3	=3
!	!LO:TUP:b:problem:klamra łukowa	!
8EL 8AA'\	(24A/LL	.
.	24c#/	.
.	24d/JJ	.
8E 8AA'\	16e/LL	.
.	16f#/JJ	.
*	*Xtuplet	*
8EJ 8AA'\	24d/LL	.
.	24c#/	.
.	24B/JJ)	.
=4	=4	=4
8EL 8AA'\	(16A/LL	.
.	16c#/JJ)	.
8E 8AA'\	8e/L	.
8EJ 8AA'\	8a/J	.
=5	=5	=5
.	16qqf#/LL	.
.	16qqe/JJ	.
8F#L 8AA'\	4.d^/	.
8F# 8AA'\	.	.
8F#J 8AA'\	.	.
=6	=6	=6
.	16qqf#/LL	.
.	16qqe/JJ	.
8F#L 8AA'\	4.d^/	.
8F# 8AA'\	.	.
8F#J 8AA'\	.	.
!!LO:LB:g=original
=7	=7	=7
!	!LO:TUP:a:problem:klamra łukowa	!
8G#XL 8E 8D 8AA\	(>24e/LL	.
.	24g#X/	.
.	24a/JJ	.
8G# 8E 8D 8AA\	16b/LL	.
.	16dd/JJ	.
8G#J 8E 8D 8AA\	24dd/LL	.
.	24cc#/	.
.	24b/JJ)	.
=8	=8	=8
!	!LO:TUP:a:problem:klamra łukowa	!
8AL 8E 8C# 8AA\	24a/LL	.
.	24g#X/	.
.	24a/JJ	.
8A 8E 8C# 8AA\	8cc#/L	.
8AJ 8E 8C# 8AA\	8a/J	.
=9	=9	=9
.	(16qqcc#/LL	.
.	16qqb/JJ)	.
8AL 8E 8AA\	4.a^/	.
8A 8E 8AA\	.	.
8AJ 8E 8AA\	.	.
=10	=10	=10
.	(16qqcc#/LL	.
.	16qqb/JJ)	.
8AL 8E 8AA\	4.a^/	.
8A 8E 8AA\	.	.
8AJ 8E 8AA\	.	.
=11	=11	=11
8AL 8E 8AA\	(24a\LL	.
.	24cc#\	.
.	24dd\JJ	.
8A 8E 8AA\	16ee\LL	.
.	16gg\JJ	.
8AJ 8E 8AA\	24gg\LL	.
.	24ff#\	.
.	24ee\JJ)	.
=12	=12	=12
!	!LO:TUP:a:problem:klamra łukowa	!
8AL 8F# 8AA\	24dd\LL	.
.	24cc#\	.
.	24dd\JJ	.
8A 8F# 8AA\	8ff#\L	.
8AJ 8F# 8AA\	8aa\J	.
=13	=13	=13
.	(16qqgg#X/LL	.
.	16qqff#/JJ)	.
8G#XL 8E 8D 8AA\	4.ee^\	.
8G# 8E 8D 8AA\	.	.
8G#J 8E 8D 8AA\	.	.
!!LO:LB:g=original
=14	=14	=14
!	!LO:SIC:v:s=(16qqgg#/LL	!
.	(16qqgg/LL	.
.	16qqff#/JJ)	.
8G#XL 8E 8D 8AA\	4.ee^\	.
8G# 8E 8D 8AA\	.	.
8G#J 8E 8D 8AA\	.	.
=15	=15	=15
8G#XL 8E 8D 8AA\	(24ee\LL	.
.	24b\	.
.	24cc#\JJ	.
8G# 8E 8D 8AA\	16dd\LL	.
.	16ee\JJ	.
8G#J 8E 8D 8AA\	24dd\LL	.
.	24cc#\	.
.	24b\JJ)	.
=16	=16	=16
!	!LO:TUP:a:problem:klamra łukowa	!
8AL 8E 8C# 8AA\	24a/LL	.
.	24g#X/	.
.	24a/JJ	.
8A 8E 8C# 8AA\	8cc#/L	.
8AJ 8E 8C# 8AA\	8a/J	.
=17	=17	=17
!	!LO:TUP:a:problem:klamra łukowa	!
8AL 8F# 8AA\	24cc#\LL	.
.	24b\	.
.	24a\JJ	.
8A 8E 8AA\	8cc#\L	.
8AAJ 8AAA^\	8ee^\J	.
=18	=18	=18
!	!LO:TUP:a:problem:klamra łukowa	!
8AL 8Fn 8AA'\	24ffn\LL	.
.	24ee\	.
.	24dd\JJ	.
8A 8F 8AA'\	4dd^^\	.
8AAJ 8AAA^\	.	.
=19	=19	=19
!	!LO:TUP:a:problem:klamra łukowa	!
8AL 8E 8AA'\	24cc#\LL	.
.	24b\	.
.	24a\JJ	.
8A 8E 8AA'\	8cc#\L	.
8AAJ 8AAA^\	8ee^\J	.
!!LO:LB:g=original
=20	=20	=20
!	!LO:TUP:a:problem:klamra łukowa	!
8AL 8Fn 8AA\	24ffn\LL	.
.	24ee\	.
.	24dd\JJ	.
8A 8F 8AA\	4dd^^\	.
8AAJ 8AAA^\	.	.
=21	=21	=21
8AL 8E 8AA\	(24cc#\LL	.
.	24b\	.
.	24a\JJ	.
8A 8E 8AA\	16cc#\LL	.
.	16ee\JJ	.
8AAJ 8AAA^\	24ffn\LL	.
.	24ee\	.
.	24dd\JJ)	.
=22	=22	=22
8G#XL 8E 8D 8AA\	(16ee\LL	.
.	16gg#X\	.
8A 8E 8C# 8AA\	16bb\	.
.	16aa\JJ)	.
!	!LO:TUP:a:problem:klamra łukowa	!
8AAJ 8AAA^\	24ffn\LL	.
.	24ee\	.
.	24dd\JJ	.
=23	=23	=23
8A 8E 8C# 8AA\	(16ee\LL	<
.	16gg#X\	.
.	(>8qbb/	.
8r	16aa\)	.
.	16gg#\	.
.	(<8qbb/	.
8r	16aa\)	.
.	16gg#\JJ	[[
=24	=24	=24
.	(<8qbb/	>
4.r	16aa\LL)	.
.	16gg#X\	.
.	16ee\	.
.	16gg#\	.
.	(<8qbb/	.
.	16aa\)	.
.	16ff#\JJ)	]]
!	!LO:TX:a:t=[segno]	!
=25!|:	=25!|:	=25!|:
*>B	*>B	*>B
*	*tuplet	*
!	!LO:TUP:a:problem:klamra łukowa	!
8DL 8AA 8DD/	24dd\LL	f
.	24ff#\	.
.	24gg#X\JJ	.
8DJ 8AA 8DD/	(16aa\LL	.
.	16bb\JJ)	.
*	*Xtuplet	*
!	!LO:TUP:a:problem:klamra łukowa	!
8AA 8AAA/	24ggn\LL	.
.	24ee\	.
.	24cc#\JJ	.
!!LO:LB:g=original
=26	=26	=26
8DL 8AA 8DD/	(16dd\LL	.
.	16ff#\JJ)	.
8D 8AA 8DD/	8aa'\L	.
8DJ 8AA 8DD/	8dddJ 8dd^\	.
=27	=27	=27
!	!LO:TUP:a:problem:klamra łukowa	!
8DL 8AA 8DD/	24dd\LL	.
.	24ff#\	.
.	24gg#X\JJ	.
8DJ 8AA 8DD/	(16aa\LL	.
.	16bb\JJ)	.
!	!LO:TUP:a:problem:klamra łukowa	!
8AA 8AAA/	24ggn\LL	.
.	24ee\	.
.	24cc#\JJ	.
=28	=28	=28
8DL 8AA 8DD/	(16dd\LL	.
.	16ff#\JJ)	.
8G 8D 8GG/	8bT\L	.
8F#J 8D 8FF#/	8a\J	.
=29:|!	=29:|!	=29:|!
*>C	*>C	*>C
8EL 8AA'/	4.r	p
8E 8AA'/	.	.
8EJ 8AA'/	.	.
=30	=30	=30
8EL 8AA'/	4.r	.
8E 8AA'/	.	.
8EJ 8AA'/	.	.
=31	=31	=31
.	(8qf#/	.
8EL 8AA'/	(16e/LL)	.
.	16d#X/JJ)	.
8E 8AA'/	(8e^/L	.
8EJ 8AA'/	16dn/L	.
.	16c#/JJ)	.
=32	=32	=32
.	(8qc#/	.
8EL 8AA'/	(16B/LL)	.
.	16A/JJ)	.
8E 8AA'/	8c#/L	.
8EJ 8AA'/	8A/J	.
!!LO:PB:g=original
=33	=33	=33
.	(8qf#/	.
8EL 8AA'/	(16e/LL)	.
.	16d#X/JJ)	.
8E 8AA'/	8e^/L	.
8EJ 8AA'/	(16dn/L	.
.	16c#/JJ)	.
=34	=34	=34
.	(8qc#/	.
8EL 8AA'/	(16B/LL)	.
.	16A/JJ)	.
8E 8AA'/	8c#/L	.
8EJ 8AA'/	8A/J	.
=35	=35	=35
(<8qF#/	(8qff#/	.
*^	*	*
(16E/LL)	8AA\L	(16ee\LL)	f
16D#X/JJ)	.	16dd#X\JJ)	.
8E^/L	8AA\	8ee^\L	.
8E/J	8AA\J	(16ddn\L	.
.	.	16cc#\JJ)	.
=36	=36	=36	=36
(<8qE/	.	(8qcc#/	.
(16D/LL)	8AA\L	(16b\LL)	.
16C#/JJ)	.	16a\JJ)	.
8E^/L	8AA\	8cc#^\L	.
8C#/J	8AA\J	8a\J	.
=37	=37	=37	=37
(<8qF#/	.	(8qff#/	.
(16E/LL)	8AA\L	(16ee\LL)	.
16D#X/JJ)	.	16dd#X\JJ)	.
8E^/L	8AA\	8ee^\L	.
8E/J	8AA\J	(16ddn\L	.
.	.	16cc#\JJ)	.
=38	=38	=38	=38
(<8qE/	.	(8qcc#/	.
(16D/LL)	8AA\L	(16b\LL)	.
16C#/JJ)	.	16a\JJ)	.
8E/L	8AA\	8cc#\L	.
8C#/J	8AA\J	8a\J	.
!	!	!LO:TX:b:Bi:rj:t=D.S.	!
*v	*v	*	*
!!LO:LB:g=original
==39	==39	==39
*>D	*>D	*>D
*M3/8	*M3/8	*
*	*tuplet	*
!	!LO:TX:a:B:t=CODA	!LO:DY:b:rj
!	!LO:TUP:a:problem:klamra łukowa	!
8DL 8AA 8DD/	24dd\LL	ff
.	24ff#\	.
.	24gg#X\JJ	.
8DJ 8AA 8DD/	(16aa\LL	.
.	16bb\JJ)	.
*	*Xtuplet	*
!	!LO:TUP:a:problem:klamra łukowa	!
8AA 8AAA/	24ggn\LL	.
.	24ee\	.
.	24cc#\JJ	.
=40	=40	=40
8DL 8AA 8DD/	(16dd\LL	.
.	16ff#\JJ)	.
8D 8AA 8DD/	8aa'\L	.
8DJ 8AA 8DD/	8dddJ 8ff# 8dd^\	.
=41	=41	=41
!	!LO:TUP:a:problem:klamra łukowa	!
8DL 8AA 8DD/	24dd\LL	.
.	24ff#\	.
.	24gg#X\JJ	.
8DJ 8AA 8DD/	(16aa\LL	.
.	16bb\JJ)	.
!	!LO:TUP:a:problem:klamra łukowa	!
8AA 8AAA/	24ggn\LL	.
.	24ee\	.
.	24cc#\JJ	.
=42	=42	=42
8D 8AA 8DD/	(16dd\LL	.
.	16ff#\JJ)	>
8GL 8D 8GG/	8bT\L	.
8F#J 8D 8FF#/	8a\J	]]
=43	=43	=43
!	!LO:TUP:a:problem:klamra łukowa	!
8DL 8AA 8DD/	24dd\LL	.
.	24ff#\	.
.	24gg#X\JJ	.
8DJ 8AA 8DD/	(16aa\LL	.
.	16bb\JJ)	.
!	!LO:TUP:a:problem:klamra łukowa	!
8AA 8AAA/	24ggn\LL	.
.	24ee\	.
.	24cc#\JJ	.
!!LO:LB:g=original
=44	=44	=44
!	!LO:TUP:a:problem:klamra łukowa	!
8DL 8AA 8DD/	24dd\LL	.
.	24ff#\	.
.	24gg#X\JJ	.
8DJ 8AA 8DD/	(16aa\LL	.
.	16bb\JJ)	.
!	!LO:TUP:a:problem:klamra łukowa	!
8AA 8AAA/	24ggn\LL	.
.	24ee\	.
.	24cc#\JJ	.
=45	=45	=45
!	!LO:TUP:a:problem:klamra łukowa	!
8DL 8AA 8DD/	24dd\LL	.
.	24ff#\	.
.	24gg#X\JJ	.
8DJ 8AA 8DD/	(16aa\LL	.
.	16bb\JJ)	.
!	!LO:TUP:a:problem:klamra łukowa	!
8AA 8AAA/	24ggn\LL	.
.	24ee\	.
.	24cc#\JJ	.
=46	=46	=46
!	!LO:TUP:a:problem:klamra łukowa	!
8DL 8AA 8DD/	24dd\LL	.
.	24ff#\	.
.	24gg#X\JJ	.
8DJ 8AA 8DD/	(16aa\LL	.
.	16bb\JJ)	.
!	!LO:TUP:a:problem:klamra łukowa	!
8AA 8AAA/	24ggn\LL	.
.	24ee\	.
.	24cc#\JJ	.
=47	=47	=47
!	!LO:TX:b:t=cres-cen-do:ext=ut:problem:text with extention lines	!
(16.DLL 16.DD/	32fff#LLL 32ddd 32aa\	<
.	32ff#\	.
.	32fff# 32ddd 32aa\	.
32F#/JJk)	32ff#\JJJ	.
8A\L	32fff# 32ddd 32aa\LLL	.
.	32ff#\	.
.	32fff# 32ddd 32aa\	.
.	32ff#\JJJ	.
8dJ 8D^^\	32fff# 32ddd 32aa\LLL	.
.	32ff#\	.
.	32fff# 32ddd 32aa\	.
.	32ff#\JJJ	.
!!LO:LB:g=original
=48	=48	=48
(16.DLL 16.DD\	32fff#LLL 32ddd 32aa\	.
.	32ff#\	.
.	32fff# 32ddd 32aa\	.
32F#\JJk)	32ff#\JJJ	.
8A\L	32fff# 32ddd 32aa\LLL	.
.	32ff#\	.
.	32fff# 32ddd 32aa\	.
.	32ff#\JJJ	.
8dJ 8D^^\	32fff# 32ddd 32aa\LLL	.
.	32ff#\	.
.	32fff# 32ddd 32aa\	.
.	32ff#\JJJ	.
=49	=49	=49
(16.DLL 16.DD\	32fff#LLL 32ddd 32aa\	.
.	32ff#\	.
.	32fff# 32ddd 32aa\	.
32F#\JJk)	32ff#\JJJ	.
8A\L	32fff# 32ddd 32aa\LLL	.
.	32ff#\	.
.	32fff# 32ddd 32aa\	.
.	32ff#\JJJ	.
8dJ 8D^^\	32fff# 32ddd 32aa\LLL	.
.	32ff#\	.
.	32fff# 32ddd 32aa\	.
.	32ff#\JJJ	.
=50	=50	=50
(16.DLL 16.DD\	32fff#LLL 32ddd 32aa\	.
.	32ff#\	.
.	32fff# 32ddd 32aa\	.
32F#\JJk)	32ff#\JJJ	.
8A\L	32fff# 32ddd 32aa\LLL	.
.	32ff#\	.
.	32fff# 32ddd 32aa\	.
.	32ff#\JJJ	.
8dJ 8D^^\	32fff# 32ddd 32aa\LLL	.
.	32ff#\	.
.	32fff# 32ddd 32aa\	.
.	32ff#\JJJ	[
!!LO:LB:g=original
=51	=51	=51
8D 8DD/	8fff# 8ddd 8aa 8ff#\	ff
8r	8r	.
(32D\LLL	(32dd\LLL	<
64E\L	64ee\L	.
64F#\	64ff#\	.
64G\	64gg\	.
64A\	64aa\	.
64B\	64bb\	.
64c#\JJJJ)	64ccc#\JJJJ)	[
=52	=52	=52
!	!LO:TX:a:t=P:problem:mixed beam	!
8d`\L	8ddd`>\L	.
8D'\	8d'/	.
8D'\J	8d'/J	.
=53	=53	=53
8DL 8DD'/	8d'/L	.
8D 8DD'/	8d'/	.
8DJ 8DD'/	8d'/J	.
=54	=54	=54
4D 4DD^/	4d 4A 4F#^/	.
8r	8r	.
=55	=55	=55
8d 8A 8F# 8D\	8ddd 8aa 8ff# 8dd\	sf
8.r	8.r	.
16D 16DD/	16d/	.
=56	=56	=56
4.D 4.DD;</	4.d;</	sf
!LO:TX:b:Bi:t=Fine	!	!
==	==	==
*-	*-	*-
!!!system-decoration: {(s1,s2)}
!!!RDF**kern: > = above
!!!RDF**kern: < = below
!!!ENC: Berenika Jozajtis
!!!END: 2022-11-28
!!!ENC: Katarzyna Serwa
!!!END: 2022-12-07
!!!YEC: Copyright 2022 Narodowy Instytut Fryderyka Chopina (https://polishscores.org)
!!!YEM: License CC-BY-4.0 (https://creativecommons.org/licenses/by/4.0)
